X:12212
T:O,Hurrah for the Bonnetts O Blue. BF12.16
T:Hurrah for the Bonnets so Blue. BF12.16
M:6/8
L:1/8
S:MS12,J.Wilson,1833,Browne Coll.,Lakes
R:Jig
O:England
A:Lakes
N:The bottom of the last line is missing from the photocopy and  the
N:duration of notes in bars marked with an asterix are not certai
Z:vmp.Cherri Graebe.
K:D major
A|ded fga|ABA ABc|d2b gfe|e3zfe|!ded fga|(AB)A A b2|agf ede|d3d3:|!
|:d|cde efe|(A3A2)d|cde ef^g|a3a2g|!ffe dBc|d2ef2^a|bfe dec|B3B2c|!
ded faf|d3d2A|d2b afe|"*"(e3e)e2|!f2e def|gab a2a"*"|agf ede|(d3d3)||


